src/Pure/16/symbolic/actions/xapp-search-entire-word-symbolic.svg

<?xml version="1.0" encoding="UTF-8" standalone="no"?>
<svg
   width="16"
   height="16"
   version="1.1"
   id="svg1"
   sodipodi:docname="xapp-search-entire-word-symbolic.svg"
   inkscape:version="1.4.2 (ebf0e940d0, 2025-05-08)"
   xmlns:inkscape="http://www.inkscape.org/namespaces/inkscape"
   xmlns:sodipodi="http://sodipodi.sourceforge.net/DTD/sodipodi-0.dtd"
   xmlns="http://www.w3.org/2000/svg"
   xmlns:svg="http://www.w3.org/2000/svg">
  <defs
     id="defs1">
     <style
        id="current-color-scheme"
        type="text/css">
        .ColorScheme-Text { color:#363636; }
     </style>
  </defs>
  <sodipodi:namedview
     id="namedview1"
     pagecolor="#ffffff"
     bordercolor="#000000"
     borderopacity="0.25"
     inkscape:showpageshadow="2"
     inkscape:pageopacity="0.0"
     inkscape:pagecheckerboard="0"
     inkscape:deskcolor="#d1d1d1"
     inkscape:zoom="49.6875"
     inkscape:cx="8"
     inkscape:cy="8"
     inkscape:window-width="1920"
     inkscape:window-height="1010"
     inkscape:window-x="0"
     inkscape:window-y="0"
     inkscape:window-maximized="1"
     inkscape:current-layer="svg1" />
  <path
     id="path1"
     style="fill:currentColor;fill-opacity:1"
     class="ColorScheme-Text"
     d="M 3 3 C 1.02 3 0 4.1724219 0 6.6074219 L 0 8.5 A 1.5 1.5 0 0 0 1.5 10 A 1.5 1.5 0 0 0 3 8.5 A 1.5 1.5 0 0 0 1.5097656 7 L 1.5019531 6.5976562 C 1.5019531 5.6486563 1.6138438 5.0004844 1.8398438 4.6464844 C 2.0658437 4.2934844 2.453 4.037 3 4 L 3 3 z M 7 3 C 5.02 3 4 4.1724219 4 6.6074219 L 4 8.5 A 1.5 1.5 0 0 0 5.5 10 A 1.5 1.5 0 0 0 7 8.5 A 1.5 1.5 0 0 0 5.5097656 7 L 5.5019531 6.5976562 C 5.5019531 5.6486563 5.6138438 5.0004844 5.8398438 4.6464844 C 6.0658437 4.2934844 6.453 4.037 7 4 L 7 3 z M 9.5 5 A 1.5 1.5 0 0 0 8 6.5 A 1.5 1.5 0 0 0 9.4902344 8 L 9.4980469 8.4023438 C 9.4980469 9.3513437 9.3861563 9.9995156 9.1601562 10.353516 C 8.9341562 10.706516 8.547 10.963 8 11 L 8 12 C 9.98 12 11 10.827578 11 8.3925781 L 11 6.5 A 1.5 1.5 0 0 0 9.5 5 z M 13.5 5 A 1.5 1.5 0 0 0 12 6.5 A 1.5 1.5 0 0 0 13.490234 8 L 13.498047 8.4023438 C 13.498047 9.3513437 13.386156 9.9995156 13.160156 10.353516 C 12.934156 10.706516 12.547 10.963 12 11 L 12 12 C 13.98 12 15 10.827578 15 8.3925781 L 15 6.5 A 1.5 1.5 0 0 0 13.5 5 z " />
</svg>

<svg xmlns="http://www.w3.org/2000/svg" width="16" height="16"><path d="M3 3C1.02 3 0 4.172 0 6.607V8.5A1.5 1.5 0 0 0 1.5 10 1.5 1.5 0 0 0 3 8.5 1.5 1.5 0 0 0 1.51 7l-.008-.402c0-.949.112-1.598.338-1.952.226-.353.613-.609 1.16-.646zm4 0C5.02 3 4 4.172 4 6.607V8.5A1.5 1.5 0 0 0 5.5 10 1.5 1.5 0 0 0 7 8.5 1.5 1.5 0 0 0 5.51 7l-.008-.402c0-.949.112-1.598.338-1.952.226-.353.613-.609 1.16-.646zm2.5 2A1.5 1.5 0 0 0 8 6.5 1.5 1.5 0 0 0 9.49 8l.008.402c0 .949-.112 1.598-.338 1.952-.226.353-.613.609-1.16.646v1c1.98 0 3-1.172 3-3.607V6.5A1.5 1.5 0 0 0 9.5 5zm4 0A1.5 1.5 0 0 0 12 6.5 1.5 1.5 0 0 0 13.49 8l.008.402c0 .949-.112 1.598-.338 1.952-.226.353-.613.609-1.16.646v1c1.98 0 3-1.172 3-3.607V6.5A1.5 1.5 0 0 0 13.5 5z" fill="#363636"/></svg>
